X:1
T:Precious Name
T:Precious Name
T:William Howard Doane, 1871
T:Lydia Odell Baxter, 1870
T:Public Domain Courtesy of the Cyber Hymnal™
C:William Howard Doane, 1871
Z:Public Domain
Z:Courtesy of the Cyber Hymnal™
%%score ( 1 2 ) ( 3 4 )
L:1/8
Q:1/4=110
M:4/4
K:Ab
V:1 treble 
V:2 treble 
V:3 bass 
V:4 bass 
V:1
 [CE]2 [CA]2 [Ec]>[DB] [CA]>[DB] | [CA]4 [CE]4 | [DF]2 [FA]2 [EG]>[DF] [FA]>[DF] | [CE]6 z | %4
w: 1.Take the name of Je- sus|with you,|Child of sor- row and of|woe,|
w: 2.~Take the name of Je- sus|ev- er,|As a shield from ev- ery|snare;|
w: 3.~O the pre- cious name of|Je- sus!|How it thrills our souls with|joy,|
w: 4.~At the name of Je- sus|bow- ing,|Fall- ing pros- trate at His|feet,|
 E2 [EB]2 [EA]>[EG] [EA]>[EB] | [Ec]4 [EA]4 | [EB]2 E2 [Ec]>[EB] [EA]>[DG] | [CA]6 || %8
w: It will joy and com- fort|give you;|Take it then, wher- e’er you|go.|
w: If temp- ta- tions round you|ga- ther,|Breathe that ho- ly name in|prayer.|
w: When His lov- ing arms re-|ceive us,|And His songs our tongues em-|ploy!|
w: King of kings in Heav’n we’ll|crown Him,|When our jour- ney is com-|plete.|
"^Refrain" [CA]>[EG] | [DF]6 [FA]>[DF] | [CE]6 [EA]>[EB] | [Ec]2 [CE]2 [EA]2 [Ac]2 | %12
w: ||||
w: ||||
w: Pre- cious|name, O how|sweet! Hope of|earth and joy of|
w: ||||
 [GB]6 [Ec]>[DB] | [CA]6 [CA]>[EG] | ([DF]4 !fermata![FA]2) [FA]>[_FB] | [Ec]2 E2 [Ec]2 [DB]2 | %16
w: ||||
w: ||||
w: Heav’n. Pre- cious|name, O how|sweet! * Hope of|earth and joy of|
w: ||||
 [CA]8 |] %17
w: |
w: |
w: Heav’n.|
w: |
V:2
 x8 | x8 | x8 | x7 | E2 x6 | x8 | x8 | x6 || x2 | x8 | x8 | x8 | x8 | x8 | x8 | x2 E2 x4 | x8 |] %17
V:3
 [A,,A,]2 [A,,A,]2 [A,,A,]>[A,,A,] [A,,A,]>[A,,A,] | [A,,A,]4 [A,,A,]4 | %2
 [D,A,]2 [D,A,]2 [D,A,]>[D,A,] [D,A,]>[D,A,] | [A,,A,]6 z | %4
 [E,G,]2 [E,D]2 [E,C]>[E,B,] [E,C]>[E,G,] | [A,,A,]4 [A,,C]4 | %6
 [E,D]2 [E,G,]2 [E,A,]>[E,D] [E,C]>[E,B,] | [A,,A,]6 || z2 | z2 [D,A,]>[D,A,] [D,A,]2 z2 | %10
 z2 [A,,A,]>[A,,A,] [A,,A,]2 [C,A,]>[E,G,] | A,2 A,2 [A,C]2 [A,,E]2 | [E,E]6 z2 | %13
 z2 [A,,A,]>[A,,A,] [A,,A,]2 [A,,A,]>[C,A,] | [D,A,]2 [D,A,]2 !fermata![D,A,]2 [D,A,]>[D,A,] | %15
 [E,A,]2 [E,C]2 [E,A,]2 [E,G,]2 | [A,,A,]8 |] %17
V:4
 x8 | x8 | x8 | x7 | x8 | x8 | x8 | x6 || x2 | x8 | x8 | A,2 A,2 x4 | x8 | x8 | x8 | x8 | x8 |] %17

